X: 2
T: The Lark On The Strand
R: jig
M: 6/8
L: 1/8
K: Gmaj
GED G2A | B3 ABd | edd gdd | edB dBA |
GED G2A | BdB A (3Bcd | edd gdB |1 AGF GBA:|2AGF GBd||
gfg efg | afd edB | Add fdd | ed^c def |
gfg aga | bag fgf | edc B2A | BGF GBd :|


Tune 3254	Setting 28752

